images/call.svg

<svg width="20" height="20" viewBox="0 0 20 20" fill="none" xmlns="http://www.w3.org/2000/svg">
<path d="M15.2719 12.4861C13.8952 12.3609 13.1442 14.2387 12.1429 14.7395C10.5158 15.6158 7.51196 12.4861 7.51196 12.4861C7.51196 12.4861 4.38294 9.48151 5.1339 7.85405C5.75971 6.85253 7.63712 6.10139 7.51196 4.72431C7.3868 3.47241 4.63326 -1.03441 3.25649 0.217481C0.25263 2.97165 0.00230825 4.09836 0.00230825 6.35177C-0.122853 10.2326 4.88358 15.115 4.88358 15.115C5.38422 15.6158 9.76485 20.1226 13.6448 19.9974C15.8977 19.9974 17.0242 19.7471 19.7777 16.7425C21.0293 15.3654 16.6487 12.6113 15.2719 12.4861Z" fill="white"/>
</svg>

<svg width="20" height="20" fill="none" xmlns="http://www.w3.org/2000/svg"><path d="M15.272 12.486c-1.377-.125-2.128 1.753-3.13 2.253-1.626.877-4.63-2.253-4.63-2.253s-3.13-3.004-2.378-4.632c.626-1.001 2.503-1.753 2.378-3.13C7.387 3.472 4.633-1.034 3.256.217.253 2.972.002 4.098.002 6.352c-.125 3.88 4.882 8.763 4.882 8.763.5.5 4.88 5.008 8.76 4.882 2.254 0 3.38-.25 6.134-3.255 1.251-1.377-3.13-4.13-4.506-4.256z" fill="#fff"/></svg>
